X:279
%%etbk:tnset id:85,pos:2,rep:3x,ant:
%%etbk:wsite http://www.thesession.org/tunes/display/4191
%%etbk:skill ?
%%etbk:pldat 2013-11-21T18:22,2013-11-19T16:03,2013-04-30T15:55
T: Humours Of Ballingarry, The
Z: Piano Box Version by Martin Fleischmann
H: Created 2013-02-19 /  Last Modified 2013-11-19
M: 6/8
L: 1/8
R: jig
K: Gmaj
 !2!A |: "G"!3!B!1!GG !5!dGG | "D"!4!cA!1!G !2!F!1!G!2!A | "G"!3!BAG BdB | "D"!4!c!2!A!1!F "G"!1!G2!2!A |
!3!B!1!GG !5!dGG | "D"!4!c!2!A!1!G !1!F!5!d!2!d | !2!d!4!ef !5!g!2!d!1!B | !4!c!2!A!1!F "G"!1!G3:|
!3!d|: "G"!1!def !4!ggg | !2!e!1!d!3!c !2!BA!1!G | "D"!2!e2!4!a aga | !5!b!3!g!2!e e!1!d!2!B |
"G"!1!def !4!ggg | !2!e!1!d!3!c !2!B!1!AB | !1!G!2!B!3!d !5!g!3!d!2!B | "D"!3!c!1!A!2!F "G"!1!G3:||
